!!!OTL: Bauer keen Edelmann! (221b), S. 477
!!!id: T0404
**kern
*clefG2
*k[b-]
*F:
*M3/8
{8f
8f
8f
=2
8a
8a
8a
=3
4.f}
=4
{8a
8a
8a
=5
16cc
16cc
16cc
16cc
8a}
=6
{8f
8f
8f
=7
8a
8g
8g
=8
4.f}
=9
{8cc
8b-
8b-
=10
4.a}
=11
{4f
8f
=12
8f
8f
8dd
=13
8dd
8cc
8cc
=14
4.cc}
=15
{16a
16a
8cc
8cc
=16
8cc
8b-
8b-
=17
4.a}
=18
{16f
16f
8f
8f
=19
16f
16f}
4r
=20
{16f
16f
8f
8f
=21
16f
16f}
4r
=22
{8f
8f
8f
=23
16cc
16cc}
4r
==
*-
!!!minrhy: 16
!!!meters: 3/8 ]  ZZ[9
!!!cut: Bauer keen Edelmann! (221b), S. 477
!!!reg: Luxemburg
!!!trd: Singendes Volk, Esch-Alzette, 1937 posth.
!!!rhy1: X_X_X_  X_X_X_  X__.
!!!rhy2: X_X_X_  XXXXX_
!!!key: T0404  16  F 3/8 ]  ZZ[9
!!!mod: SECHSTONSKALA DUR ?]  AMBITUS[6
!!!kad: 131353115
!!!akz: 131_35_131_53_1165_353_11_11_15_
!!!fot: 'a__as"aw_b__c__as"aw_aw_aw_
!!!for: 'a__b__a__aw_c__d__e__e__bw_
!!!fok: '^__^__^__\__/__^__-__-__/__
!! PHRAS[VOLLTAKTIG]
!!!fkt: Berufslied
!!!bem: Diekirch, fff Elise Laschette, 28.1.1929
!! THILL; Mathias
!! PR[36] 2K[11] 2G[18] 3K[0] 3G[2] 4A[2] 4Ü[0] 5A[0] 6K[0] 6G[2]
!! 7K[0] 7G[0] 8A[0] MEHR[0] SI[35] ABS[55] SR[29] SP[5]
!! ST[16] 2k[4] 2g[15] 3k[7] 3g[2] 4d[2] 4ü[0] 5d[0] 6k[0] 6g[0]
!! 7k[0] 7g[0] 8d[0] mehr[0] si[29] dm[+6] sr[18] sp[11]
!! 1F[93] 2F[7] 3F[0] 4F[0] LF[0] 2P[0] 3P[0] 4P[0] TRI[0] DF[2] AB[60]
!! TF[0] U3K[0] U3[0] U4[0] U4Ü[0] U5[0] U6K[0] U6[0] U7K[0] U7[0]
!! N1[0] N2K[0] N2[0] N3K[0] N3[0] N4[0] N4Ü[0] N5[23] N6K[0] N6[13]
!!!n7k: 0] N7[25] O1[21] O2K[0] O2[13] O3K[0] O3[5] HÖ[0
